X: 18976
T: Inisheer
R: waltz
M: 3/4
K: Dmixolydian
DED|:B2BA Bd|B2BA Bd|E2EB AB|D2DB AG|
B2BA Bd|B2BA Bd|G2GB A/G/F|1 G2GD ED:|2 G3A Bd||
e3f ed|B2BA Bd|gf ed B/c/d|
e3d Bd|e2eaf ed|B3A Bd|G2GB A/G/F|
G3A Bd|e3f ed|B2BA Bd|gf ed B/c/d|
e2ed Bd|e3f ed|B3A Bd|G2GB A/G/F|G6||

